X: 402
M: C|
L: 1/8
K: C
V: 1
~c2e>c g>ce>c | (A/B/c) GE FD-DG |\
c2ec g>cec | (f/g/a) Tg>f eccG |
~c2e>c gcec | (A/B/c) G>E FDDG | TF>EFG A>cde | f<dTg>f ecc |]
V: 2 clef=bass middle=d
z | c2e2 c2c2 | d2c2 B2G2 | c2c2 d2e2 | g2G2 c2c :|
z | c2c2 e2c2 | f2e2 d2B2 | c2c2 e2c2 | f2g2 c2c2 |
    c2c2 e2c2 | f2e2 d2B2 | a3g f2^f2 | g2G2 c2c |]


